Arcticons/scalable/apps/bestiary.svg

<svg id="Layer_2" data-name="Layer 2" viewBox="0 0 48 48" xmlns="http://www.w3.org/2000/svg">
 <defs>
  <style>.cls-1{fill:none;stroke:#fff;stroke-linecap:round;stroke-linejoin:round;}</style>
 </defs>
 <path class="cls-1" d="m33.75 7.48a17.5 17.5 0 1 0-19.5 29.06v7h4.09v-6.26h3.66v6.23h4v-6.23h3.63v6.23h4.09v-7a17.5 17.5 0 0 0 0-29.06zm-17.44 22.68a3.92 3.92 0 1 1 3.91-3.92 3.93 3.93 0 0 1-3.91 3.92zm4.85 3.41 2.84-5.74 2.84 5.74zm10.53-3.41a3.92 3.92 0 1 1 3.92-3.92 3.92 3.92 0 0 1-3.92 3.92z"/>
</svg>

<svg id="Layer_2" data-name="Layer 2" xmlns="http://www.w3.org/2000/svg" viewBox="0 0 48 48"><defs><style>.cls-1{fill:none;stroke:#fff;stroke-linecap:round;stroke-linejoin:round;}</style></defs><path class="cls-1" d="M33.75,7.48a17.5,17.5,0,1,0-19.5,29.06v7h4.09V37.28H22v6.23H26V37.28h3.63v6.23h4.09v-7a17.5,17.5,0,0,0,0-29.06ZM16.31,30.16a3.92,3.92,0,1,1,3.91-3.92A3.93,3.93,0,0,1,16.31,30.16Zm4.85,3.41L24,27.83l2.84,5.74Zm10.53-3.41a3.92,3.92,0,1,1,3.92-3.92A3.92,3.92,0,0,1,31.69,30.16Z"/></svg>
